; generated by PrusaSlicer 2.7.1+linux-x64-GTK3 on 2024-04-01 at 15:03:42 UTC

; 

; external perimeters extrusion width = 0.45mm
; perimeters extrusion width = 0.45mm
; infill extrusion width = 0.45mm
; solid infill extrusion width = 0.45mm
; top infill extrusion width = 0.40mm
; support material extrusion width = 0.35mm
; first layer extrusion width = 0.42mm

M73 P0 R29
M201 X2500 Y2500 Z400 E5000 ; sets maximum accelerations, mm/sec^2
M203 X180 Y180 Z12 E80 ; sets maximum feedrates, mm / sec
M204 P1250 R1250 T2500 ; sets acceleration (P, T) and retract acceleration (R), mm/sec^2
M205 X8.00 Y8.00 Z2.00 E10.00 ; sets the jerk limits, mm/sec
M205 S0 T0 ; sets the minimum extruding and travel feed rate, mm/sec

; printing object part-base.stl id:0 copy 0
; stop printing object part-base.stl id:0 copy 0

;TYPE:Custom
M862.3 P "MINI" ; printer model check
G90 ; use absolute coordinates
M83 ; extruder relative mode
M104 S170 ; set extruder temp for bed leveling
M140 S100 ; set bed temp
M109 R170 ; wait for bed leveling temp
M190 S100 ; wait for bed temp
M204 T1250 ; set travel acceleration
G28 ; home all without mesh bed level
G29 ; mesh bed leveling 
M204 T2500 ; restore travel acceleration
M104 S260 ; set extruder temp
G92 E0
G1 Y-2 X179 F2400
G1 Z3 F720
M109 S260 ; wait for extruder temp

; intro line
G1 X170 F1000
G1 Z0.2 F720
G1 X110 E8 F900
G1 X40 E10 F700
G92 E0

M221 S95 ; set flow
G21 ; set units to millimeters
G90 ; use absolute coordinates
M83 ; use relative distances for extrusion
M900 K0.2 ; Filament gcode
M107
;LAYER_CHANGE
;Z:0.15
;HEIGHT:0.15
;BEFORE_LAYER_CHANGE
G92 E0.0
;0.15


G1 E-2.7 F4200
G1 Z.15 F720
;AFTER_LAYER_CHANGE
;0.15
G1 X68.693 Y63.498 F9000
G1 Z.15 F720
G1 E2.7 F2400
M204 P800
;TYPE:Skirt/Brim
;WIDTH:0.42
G1 F1200
G1 X70.462 Y62.715 E.04679
G1 X109.538 Y62.715 E.94505
G1 X111.307 Y63.498 E.04679
M73 P1 R29
G1 X114.342 Y66.843 E.10923
G1 X114.951 Y68.678 E.04676
G1 X112.029 Y98.385 E.72193
G1 X111.582 Y100.566 E.05384
G1 X110.604 Y103.499 E.07477
G1 X109.626 Y105.565 E.05528
G1 X108.475 Y107.47 E.05383
G1 X107.139 Y109.251 E.05385
G1 X105.632 Y110.889 E.05383
G1 X103.969 Y112.37 E.05386
G1 X102.167 Y113.676 E.05382
G1 X100.243 Y114.797 E.05385
G1 X98.217 Y115.72 E.05384
G1 X96.109 Y116.437 E.05385
G1 X93.999 Y116.928 E.05239
G1 X92.223 Y117.174 E.04336
G1 X90.433 Y117.285 E.04337
G1 X88.268 Y117.223 E.05238
G1 X86.001 Y116.928 E.05529
G1 X83.891 Y116.437 E.05239
G1 X81.783 Y115.72 E.05385
G1 X79.757 Y114.797 E.05384
G1 X77.784 Y113.643 E.05528
G1 X76.031 Y112.37 E.0524
G1 X74.459 Y110.979 E.05077
G1 X72.943 Y109.348 E.05385
G1 X71.631 Y107.624 E.0524
G1 X70.896 Y106.48 E.03289
G1 X69.846 Y104.517 E.05384
G1 X69.017 Y102.515 E.05241
G1 X68.403 Y100.508 E.05076
G1 X68.119 Y99.239 E.03145
G1 X67.823 Y97.217 E.04942
G1 X65.049 Y68.678 E.69347
G1 X65.658 Y66.843 E.04676
G1 X68.653 Y63.542 E.1078
M204 P1000
G1 E-2.7 F4200
G1 X68.653 Y63.542 Z.35 F9028.754
G1 X70.325 Y66.302 F9000
G1 Z.15 F720
G1 E2.7 F2400
M204 P800
G1 F1200
G1 X71.325 Y65.844 E.0266
G1 X72.376 Y65.643 E.02588
G1 X107.674 Y65.647 E.85368
G1 X108.596 Y65.82 E.02269
G1 X109.514 Y66.207 E.02409
G1 X110.26 Y66.736 E.02212
G1 X110.868 Y67.371 E.02126
G1 X111.354 Y68.119 E.02157
G1 X111.696 Y68.997 E.02279
G1 X111.852 Y70.295 E.03162
G1 X109.147 Y97.866 E.67
G1 X108.768 Y99.753 E.04655
G1 X108.201 Y101.599 E.0467
G1 X107.458 Y103.37 E.04645
G1 X106.54 Y105.063 E.04658
G1 X105.454 Y106.663 E.04677
G1 X104.213 Y108.147 E.04679
G1 X102.837 Y109.494 E.04657
G1 X101.328 Y110.702 E.04675
G1 X99.707 Y111.752 E.04671
G1 X97.988 Y112.637 E.04676
G1 X95.247 Y113.637 E.07056
G1 X93.372 Y114.066 E.04652
G1 X91.455 Y114.307 E.04673
G1 X89.522 Y114.356 E.04676
G1 X87.594 Y114.212 E.04676
G1 X85.699 Y113.878 E.04654
G1 X83.838 Y113.355 E.04675
G1 X82.036 Y112.648 E.04682
G1 X80.314 Y111.765 E.0468
G1 X78.698 Y110.72 E.04654
G1 X77.186 Y109.514 E.04677
G1 X75.809 Y108.171 E.04652
G1 X74.568 Y106.691 E.04671
G1 X73.485 Y105.104 E.04647
G1 X72.52 Y103.324 E.04897
G1 X71.777 Y101.539 E.04676
G1 X71.216 Y99.688 E.04678
G1 X70.733 Y96.901 E.06841
G1 X68.148 Y70.296 E.64647
G1 X68.289 Y69.048 E.03037
G1 X68.784 Y67.861 E.0311
G1 X69.486 Y66.977 E.0273
G1 X70.278 Y66.34 E.02458
M204 P1000
G1 X70.51 Y66.643 F9000
M204 P800
G1 F1200
G1 X71.423 Y66.22 E.02434
G1 X72.395 Y66.03 E.02395
G1 X107.655 Y66.035 E.85276
G1 X108.502 Y66.197 E.02086
G1 X109.341 Y66.555 E.02206
G1 X110.018 Y67.04 E.02014
G1 X110.574 Y67.624 E.0195
G1 X111.017 Y68.312 E.01979
G1 X111.326 Y69.113 E.02076
G1 X111.464 Y70.278 E.02837
G1 X108.88 Y96.865 E.64603
G1 X108.393 Y99.653 E.06845
M73 P2 R29
G1 X107.838 Y101.462 E.04576
G1 X107.11 Y103.198 E.04553
G1 X106.206 Y104.866 E.04588
G1 X105.141 Y106.433 E.04582
G1 X103.926 Y107.887 E.04583
G1 X102.577 Y109.206 E.04563
G1 X101.097 Y110.39 E.04584
G1 X99.509 Y111.419 E.04576
G1 X96.942 Y112.659 E.06895
G1 X95.147 Y113.263 E.0458
G1 X93.309 Y113.683 E.0456
G1 X91.43 Y113.92 E.0458
G1 X89.536 Y113.969 E.04582
G1 X87.647 Y113.828 E.04581
G1 X85.79 Y113.501 E.0456
G1 X83.965 Y112.989 E.04584
G1 X82.2 Y112.297 E.04585
G1 X80.512 Y111.431 E.04588
G1 X78.928 Y110.408 E.0456
G1 X77.446 Y109.226 E.04585
G1 X76.097 Y107.911 E.04556
G1 X74.879 Y106.461 E.0458
G1 X73.818 Y104.906 E.04553
G1 X72.868 Y103.152 E.04824
G1 X72.141 Y101.404 E.04579
G1 X71.591 Y99.589 E.04587
G1 X71.241 Y97.837 E.04321
G1 X68.536 Y70.279 E.66969
G1 X68.663 Y69.153 E.0274
G1 X68.853 Y68.594 E.01428
G1 X69.122 Y68.053 E.01461
G1 X69.776 Y67.236 E.02531
G1 X70.463 Y66.681 E.02136
M204 P1000
G1 X70.705 Y66.984 F9000
M204 P800
G1 F1200
G1 X70.732 Y66.962 E.00084
G1 X71.562 Y66.583 E.02207
G1 X72.414 Y66.418 E.02099
G1 X107.636 Y66.422 E.85184
G1 X108.406 Y66.573 E.01898
G1 X109.167 Y66.902 E.02005
G1 X109.776 Y67.343 E.01818
G1 X110.279 Y67.876 E.01772
G1 X110.679 Y68.503 E.01799
G1 X110.954 Y69.228 E.01875
G1 X111.076 Y70.261 E.02516
G1 X108.381 Y97.742 E.66781
G1 X108.016 Y99.563 E.04492
G1 X107.472 Y101.335 E.04483
G1 X106.763 Y103.026 E.04435
G1 X105.873 Y104.668 E.04517
G1 X104.829 Y106.204 E.04492
G1 X103.638 Y107.627 E.04488
G1 X102.316 Y108.919 E.04471
G1 X100.866 Y110.079 E.04491
G1 X99.31 Y111.086 E.04482
G1 X97.659 Y111.935 E.0449
G1 X95.933 Y112.614 E.04486
G1 X94.147 Y113.118 E.04488
G1 X92.327 Y113.44 E.0447
G1 X90.479 Y113.58 E.04482
G1 X88.623 Y113.535 E.0449
G1 X86.779 Y113.305 E.04494
G1 X84.972 Y112.893 E.04482
G1 X83.212 Y112.302 E.0449
G1 X81.518 Y111.538 E.04494
G1 X79.918 Y110.614 E.04468
G1 X78.408 Y109.528 E.04498
G1 X77.024 Y108.306 E.04465
G1 X75.764 Y106.948 E.0448
G1 X74.65 Y105.478 E.04461
G1 X73.686 Y103.903 E.04466
G1 X73.216 Y102.981 E.02503
G1 X72.504 Y101.268 E.04486
G1 X71.966 Y99.491 E.0449
G1 X71.505 Y96.82 E.06555
G1 X68.924 Y70.261 E.64535
G1 X69.037 Y69.258 E.02441
G1 X69.459 Y68.246 E.02652
G1 X70.064 Y67.496 E.0233
G1 X70.658 Y67.021 E.01839
M204 P1000
G1 X70.897 Y67.32 F9000
M204 P800
G1 F1200
G1 X70.917 Y67.303 E.00063
G1 X71.661 Y66.958 E.01983
G1 X72.433 Y66.806 E.01903
G1 X107.616 Y66.81 E.8509
G1 X108.309 Y66.949 E.01709
M73 P2 R28
G1 X108.991 Y67.248 E.01801
G1 X109.531 Y67.644 E.0162
G1 X109.983 Y68.127 E.016
G1 X110.34 Y68.692 E.01616
G1 X110.583 Y69.341 E.01676
G1 X110.688 Y70.244 E.02199
G1 X108.109 Y96.785 E.64491
G1 X107.641 Y99.463 E.06575
G1 X107.109 Y101.198 E.04389
G1 X106.415 Y102.855 E.04345
G1 X105.544 Y104.462 E.04421
G1 X104.522 Y105.966 E.04398
G1 X102.723 Y108.012 E.06589
G1 X101.369 Y109.21 E.04372
G1 X99.895 Y110.273 E.04395
G1 X98.322 Y111.184 E.04396
G1 X96.667 Y111.933 E.04393
G1 X94.945 Y112.514 E.04395
G1 X93.183 Y112.918 E.04372
G1 X91.381 Y113.146 E.04393
M73 P3 R28
G1 X89.564 Y113.193 E.04396
G1 X87.752 Y113.059 E.04394
G1 X85.962 Y112.745 E.04395
G1 X84.212 Y112.254 E.04396
G1 X82.519 Y111.59 E.04398
G1 X80.9 Y110.76 E.044
G1 X79.373 Y109.773 E.04397
G1 X77.952 Y108.639 E.04397
G1 X76.659 Y107.377 E.0437
G1 X75.498 Y105.993 E.04369
G1 X74.48 Y104.501 E.04368
G1 X73.568 Y102.818 E.0463
G1 X72.871 Y101.142 E.0439
G1 X72.344 Y99.402 E.04397
G1 X72.007 Y97.713 E.04165
G1 X69.312 Y70.244 E.66752
G1 X69.411 Y69.362 E.02147
G1 X69.569 Y68.893 E.01197
G1 X69.796 Y68.439 E.01228
G1 X70.351 Y67.757 E.02127
G1 X70.85 Y67.357 E.01547
M204 P1000
G1 X71.09 Y67.655 F9000
M204 P800
G1 F1200
G1 X71.104 Y67.644 E.00043
G1 X71.762 Y67.334 E.01759
G1 X72.453 Y67.194 E.01705
G1 X107.596 Y67.198 E.84993
G1 X108.209 Y67.324 E.01514
G1 X108.812 Y67.593 E.01597
G1 X109.285 Y67.944 E.01425
G1 X109.686 Y68.377 E.01427
G1 X110 Y68.88 E.01434
G1 X110.211 Y69.453 E.01477
G1 X110.3 Y70.227 E.01884
G1 X107.615 Y97.618 E.66562
G1 X107.266 Y99.363 E.04304
G1 X106.746 Y101.062 E.04297
G1 X106.067 Y102.683 E.0425
G1 X105.215 Y104.257 E.04329
G1 X104.216 Y105.729 E.04302
G1 X103.075 Y107.093 E.04301
G1 X101.809 Y108.332 E.04284
G1 X100.42 Y109.444 E.04303
G1 X98.93 Y110.41 E.04295
G1 X97.348 Y111.224 E.04303
G1 X95.694 Y111.876 E.043
G1 X93.982 Y112.36 E.04303
G1 X92.239 Y112.67 E.04282
G1 X90.468 Y112.805 E.04296
G1 X88.69 Y112.763 E.04301
G1 X86.922 Y112.543 E.04309
G1 X85.19 Y112.149 E.04296
G1 X83.504 Y111.584 E.043
G1 X81.863 Y110.843 E.04355
G1 X80.331 Y109.957 E.0428
G1 X78.885 Y108.916 E.04309
G1 X77.559 Y107.745 E.04278
G1 X76.352 Y106.442 E.04296
G1 X75.285 Y105.033 E.04274
G1 X73.92 Y102.656 E.06629
G1 X73.238 Y101.016 E.04296
G1 X72.721 Y99.312 E.04307
G1 X72.276 Y96.74 E.06313
G1 X69.7 Y70.227 E.64423
G1 X69.785 Y69.466 E.01852
G1 X70.132 Y68.634 E.0218
G1 X70.638 Y68.019 E.01926
G1 X71.043 Y67.693 E.01257
M204 P1000
G1 X71.284 Y67.996 F9000
M204 P800
G1 F1200
G1 X71.326 Y67.963 E.00129
G1 X71.903 Y67.695 E.01539
G1 X72.472 Y67.582 E.01403
G1 X107.575 Y67.586 E.84896
G1 X108.107 Y67.699 E.01315
G1 X108.632 Y67.937 E.01394
G1 X109.387 Y68.625 E.0247
G1 X109.659 Y69.066 E.01253
G1 X109.838 Y69.562 E.01275
G1 X109.912 Y70.209 E.01575
G1 X107.337 Y96.705 E.64382
G1 X106.891 Y99.264 E.06282
G1 X106.38 Y100.934 E.04224
G1 X105.719 Y102.511 E.04135
G1 X104.886 Y104.051 E.04234
G1 X103.909 Y105.491 E.04209
G1 X102.187 Y107.451 E.0631
G1 X100.892 Y108.598 E.04184
G1 X99.481 Y109.617 E.04209
G1 X97.976 Y110.49 E.04208
G1 X96.391 Y111.208 E.04208
G1 X94.743 Y111.765 E.04207
G1 X93.057 Y112.153 E.04184
G1 X91.332 Y112.372 E.04205
G1 X89.592 Y112.418 E.0421
G1 X87.857 Y112.291 E.04207
G1 X86.143 Y111.991 E.04208
G1 X84.468 Y111.521 E.04207
G1 X82.847 Y110.887 E.0421
G1 X81.28 Y110.083 E.04259
G1 X79.819 Y109.138 E.04208
G1 X78.459 Y108.051 E.04211
G1 X77.221 Y106.842 E.04185
G1 X76.11 Y105.517 E.04182
G1 X75.136 Y104.088 E.04182
G1 X74.272 Y102.493 E.04387
G1 X73.604 Y100.889 E.04202
G1 X73.098 Y99.222 E.04213
G1 X72.773 Y97.589 E.04027
G1 X70.088 Y70.209 E.66536
G1 X70.16 Y69.568 E.0156
G1 X70.284 Y69.192 E.00958
G1 X70.468 Y68.829 E.00984
G1 X70.922 Y68.283 E.01717
M73 P4 R28
G1 X71.237 Y68.033 E.00973
M204 P1000
G1 X71.513 Y68.303 F9000
M204 P800
G1 F1200
G1 X72.006 Y68.07 E.01319
G1 X72.492 Y67.969 E.012
G1 X107.553 Y67.974 E.84795
G1 X108.001 Y68.073 E.0111
G1 X108.448 Y68.279 E.0119
G1 X109.087 Y68.871 E.02107
G1 X109.465 Y69.67 E.02138
G1 X109.524 Y70.192 E.0127
G1 X106.849 Y97.495 E.66348
G1 X106.517 Y99.164 E.04116
G1 X106.013 Y100.807 E.04156
G1 X104.984 Y103.101 E.06081
G1 X104.096 Y104.564 E.04139
G1 X103.073 Y105.92 E.04108
G1 X101.919 Y107.17 E.04114
G1 X100.646 Y108.298 E.04114
G1 X99.266 Y109.294 E.04116
G1 X97.794 Y110.147 E.04115
G1 X96.244 Y110.849 E.04115
G1 X94.642 Y111.39 E.04089
G1 X92.984 Y111.772 E.04115
G1 X91.297 Y111.986 E.04113
G1 X89.597 Y112.03 E.04113
G1 X87.91 Y111.906 E.04091
G1 X86.234 Y111.614 E.04114
G1 X84.595 Y111.155 E.04116
G1 X83.011 Y110.535 E.04114
G1 X80.744 Y109.301 E.06242
G1 X79.362 Y108.304 E.04121
G1 X78.094 Y107.183 E.04093
G1 X76.94 Y105.937 E.04107
G1 X75.921 Y104.588 E.04089
G1 X74.624 Y102.331 E.06296
G1 X73.971 Y100.762 E.0411
G1 X73.476 Y99.133 E.04118
G1 X73.048 Y96.66 E.0607
G1 X70.476 Y70.192 E.64314
G1 X70.534 Y69.671 E.01268
G1 X70.802 Y69.026 E.01689
G1 X71.471 Y68.346 E.02307
M204 P1000
G1 X71.681 Y68.699 F9000
M204 P800
G1 F1200
G1 X72.112 Y68.444 E.01211
G1 X72.513 Y68.357 E.00992
G1 X107.53 Y68.361 E.84688
G1 X108.262 Y68.62 E.01878
G1 X108.786 Y69.117 E.01747
G1 X109.091 Y69.775 E.01754
G1 X109.136 Y70.174 E.00971
G1 X106.566 Y96.625 E.64273
G1 X106.142 Y99.065 E.0599
G1 X105.65 Y100.671 E.04062
G1 X105.019 Y102.177 E.03949
G1 X103.772 Y104.35 E.06059
G1 X102.773 Y105.675 E.04013
G1 X101.644 Y106.896 E.04022
G1 X100.4 Y107.999 E.04021
G1 X99.051 Y108.971 E.04021
G1 X97.613 Y109.805 E.0402
G1 X96.098 Y110.49 E.04021
G1 X94.532 Y111.018 E.03997
G1 X92.912 Y111.391 E.0402
G1 X91.263 Y111.599 E.0402
G1 X89.601 Y111.643 E.04021
G1 X87.953 Y111.521 E.03997
G1 X86.315 Y111.234 E.04022
G1 X84.714 Y110.786 E.04021
G1 X83.166 Y110.18 E.0402
G1 X80.951 Y108.973 E.06101
G1 X79.6 Y107.998 E.04029
G1 X78.362 Y106.903 E.03997
G1 X77.235 Y105.684 E.04015
G1 X76.239 Y104.366 E.03995
G1 X74.976 Y102.168 E.06131
G1 X74.337 Y100.636 E.04015
G1 X73.853 Y99.043 E.04027
G1 X73.434 Y96.62 E.05947
G1 X70.864 Y70.174 E.64261
G1 X71.011 Y69.466 E.01749
G1 X71.488 Y68.814 E.01954
G1 X71.63 Y68.73 E.00399
M204 P1000
G1 X71.896 Y68.99 F9000
M204 P800
G1 F1200
G1 X71.924 Y68.961 E.00097
G1 X72.534 Y68.745 E.01565
G1 X107.507 Y68.749 E.84582
G1 X108.076 Y68.961 E.01469
G1 X108.485 Y69.361 E.01384
G1 X108.717 Y69.876 E.01366
G1 X108.748 Y70.157 E.00684
G1 X106.18 Y96.585 E.64217
G1 X105.764 Y98.975 E.05867
G1 X105.287 Y100.534 E.03943
G1 X104.298 Y102.74 E.05847
M73 P5 R28
G1 X103.449 Y104.136 E.03952
G1 X102.472 Y105.43 E.03921
G1 X101.369 Y106.623 E.03929
G1 X100.154 Y107.699 E.03925
G1 X98.836 Y108.648 E.03928
G1 X97.431 Y109.462 E.03927
G1 X95.951 Y110.131 E.03928
G1 X94.422 Y110.647 E.03903
G1 X92.839 Y111.01 E.03928
G1 X91.238 Y111.212 E.03903
G1 X89.615 Y111.255 E.03927
G1 X87.996 Y111.136 E.03926
G1 X86.396 Y110.855 E.03929
G1 X84.833 Y110.416 E.03926
G1 X83.321 Y109.824 E.03927
G1 X81.166 Y108.65 E.05935
G1 X79.846 Y107.699 E.03935
G1 X78.63 Y106.622 E.03929
G1 X77.529 Y105.432 E.03921
G1 X76.557 Y104.144 E.03902
G1 X75.328 Y102.005 E.05966
G1 X74.704 Y100.509 E.0392
G1 X74.23 Y98.953 E.03934
G1 X73.819 Y96.58 E.05825
G1 X71.252 Y70.157 E.64205
G1 X71.466 Y69.429 E.01835
G1 X71.854 Y69.033 E.01341
M204 P1000
G1 X72.043 Y69.358 F9000
M204 P800
G1 F1200
G1 X72.554 Y69.133 E.0135
G1 X107.484 Y69.137 E.84478
G1 X107.86 Y69.284 E.00976
G1 X108.184 Y69.607 E.01106
G1 X108.36 Y70.14 E.01358
G1 X105.794 Y96.545 E.64161
G1 X105.387 Y98.885 E.05744
G1 X104.924 Y100.398 E.03827
G1 X104.316 Y101.851 E.03809
G1 X103.125 Y103.922 E.05778
G1 X102.172 Y105.185 E.03827
G1 X101.095 Y106.349 E.03835
G1 X99.908 Y107.399 E.03833
G1 X98.622 Y108.325 E.03833
G1 X97.25 Y109.119 E.03834
G1 X95.805 Y109.772 E.03835
G1 X94.312 Y110.275 E.0381
G1 X92.767 Y110.629 E.03833
G1 X91.204 Y110.826 E.0381
G1 X89.62 Y110.867 E.03832
G1 X88.039 Y110.75 E.03834
G1 X86.478 Y110.476 E.03833
G1 X84.952 Y110.047 E.03834
G1 X83.476 Y109.469 E.03834
G1 X81.381 Y108.327 E.05771
G1 X80.084 Y107.393 E.03865
G1 X78.898 Y106.342 E.03833
G1 X77.824 Y105.179 E.03829
G1 X76.875 Y103.922 E.03809
G1 X76.055 Y102.577 E.0381
G1 X75.357 Y101.118 E.03912
G1 X74.82 Y99.63 E.03826
G1 X74.304 Y97.342 E.05672
G1 X71.64 Y70.14 E.66102
G1 X71.736 Y69.744 E.00985
G1 X72.006 Y69.405 E.01048
M204 P1000
G1 X72.29 Y69.662 F9000
M204 P800
G1 F1200
G1 X72.314 Y69.636 E.00086
G1 X72.574 Y69.521 E.00688
G1 X107.466 Y69.529 E.84386
G1 X107.686 Y69.636 E.00592
G1 X107.883 Y69.853 E.00709
G1 X107.972 Y70.122 E.00685
G1 X105.316 Y97.259 E.65944
G1 X105.01 Y98.795 E.03788
G1 X104.284 Y100.973 E.05552
G1 X103.611 Y102.379 E.0377
G1 X102.802 Y103.708 E.03763
G1 X101.871 Y104.94 E.03735
G1 X100.82 Y106.075 E.03741
G1 X99.669 Y107.093 E.03716
G1 X98.415 Y107.997 E.03739
G1 X97.077 Y108.772 E.0374
G1 X95.668 Y109.409 E.0374
G1 X94.202 Y109.903 E.03741
G1 X92.695 Y110.248 E.03739
G1 X91.17 Y110.44 E.03717
G1 X89.624 Y110.479 E.0374
G1 X88.082 Y110.365 E.03739
G1 X86.559 Y110.097 E.0374
G1 X85.07 Y109.678 E.03741
G1 X83.631 Y109.113 E.03739
